X:102
T:Connie O'Connell's
M:4/4
L:1/8
S:Edor
R:Reel
K:EDor
(d2f)(d Ad)fd | (~d2 f)(a ge)ce | (d2 f)(d Ad)fd |1 e(A (3Bcd) e(gfe) :|
2 e(A (3Bcd) e(f (3gfe) ||
|: ~a3 (b af)df | [a2A2] fd e(f (3gfe) | ~a3 (b af)df | e(A (3Bcd) e(f (
3gfe) |
~a3 (b af)df | a2 fd e(f (3gfe) | (afg)e fde(c |1 AB)cd e(gfe) :|2 AB)c
d e(gfe) :|3
(AB)cd e(gfe) | d4 |]
